X:1
T: Ardrossan Canal
C:Nathaniel Gow
R:Strathspey
Q:128
K:F
M:4/4
L:1/16
|:A2|F4 A3F c3F A2F2|DF3 C3A, C4 C2DE|F4 A3F c2A2 a3g|f2F2 A2F2 G4 G2A2|
F4 A3F c3F A3F|D2EF DCB,A, C4 C3A,|(3B,2D2F2 (3B2d2f2 b3B, (3A,2C2F2 (3A2c2f2 a3c|a3c f3F G4 G2c2|
f4 a3f gfge fdcA|FcAf dcBA c4 c2df|f2F2 agaf gefd cAfA|GAG^F GABc d4d2 cd1/2e1/2|
f2F2 agaf gfge fefd|cdcA cAfA c4 cfga|bfdB FDB,2 afcA FCA,2|afge fcAF G4G2:|
